X: 4
M: C|
L: 1/8
K: D
d2(3efg fedd | c2dd B2A2 | BABc dedd | B2A2 A2(3ABc |
d2(3efg fedd | c2dd B2A2 | BABc dBAG | F2D2 D2 :|


